images/4933.svg

<?xml version="1.0" encoding="UTF-8"?>
<svg xmlns="http://www.w3.org/2000/svg" xmlns:xlink="http://www.w3.org/1999/xlink" width="300pt" height="300pt" viewBox="0 0 300 300" version="1.1">
<defs>
<g>
<symbol overflow="visible" id="glyph0-0">
<path style="stroke:none;" d="M 0.796875 2.828125 L 0.796875 -11.28125 L 8.796875 -11.28125 L 8.796875 2.828125 Z M 1.703125 1.9375 L 7.90625 1.9375 L 7.90625 -10.390625 L 1.703125 -10.390625 Z M 1.703125 1.9375 "/>
</symbol>
<symbol overflow="visible" id="glyph0-1">
<path style="stroke:none;" d="M 6.3125 -10.59375 C 5.164062 -10.59375 4.253906 -10.164062 3.578125 -9.3125 C 2.898438 -8.457031 2.5625 -7.296875 2.5625 -5.828125 C 2.5625 -4.359375 2.898438 -3.195312 3.578125 -2.34375 C 4.253906 -1.488281 5.164062 -1.0625 6.3125 -1.0625 C 7.457031 -1.0625 8.363281 -1.488281 9.03125 -2.34375 C 9.695312 -3.195312 10.03125 -4.359375 10.03125 -5.828125 C 10.03125 -7.296875 9.695312 -8.457031 9.03125 -9.3125 C 8.363281 -10.164062 7.457031 -10.59375 6.3125 -10.59375 Z M 6.3125 -11.875 C 7.945312 -11.875 9.253906 -11.328125 10.234375 -10.234375 C 11.210938 -9.140625 11.703125 -7.671875 11.703125 -5.828125 C 11.703125 -3.984375 11.210938 -2.507812 10.234375 -1.40625 C 9.253906 -0.3125 7.945312 0.234375 6.3125 0.234375 C 4.664062 0.234375 3.351562 -0.3125 2.375 -1.40625 C 1.394531 -2.507812 0.90625 -3.984375 0.90625 -5.828125 C 0.90625 -7.671875 1.394531 -9.140625 2.375 -10.234375 C 3.351562 -11.328125 4.664062 -11.875 6.3125 -11.875 Z M 6.3125 -11.875 "/>
</symbol>
<symbol overflow="visible" id="glyph0-2">
<path style="stroke:none;" d="M 1.578125 -11.671875 L 3.703125 -11.671875 L 8.875 -1.90625 L 8.875 -11.671875 L 10.40625 -11.671875 L 10.40625 0 L 8.28125 0 L 3.109375 -9.765625 L 3.109375 0 L 1.578125 0 Z M 1.578125 -11.671875 "/>
</symbol>
<symbol overflow="visible" id="glyph0-3">
<path style="stroke:none;" d="M 1.578125 -11.671875 L 3.15625 -11.671875 L 3.15625 -6.890625 L 8.890625 -6.890625 L 8.890625 -11.671875 L 10.46875 -11.671875 L 10.46875 0 L 8.890625 0 L 8.890625 -5.5625 L 3.15625 -5.5625 L 3.15625 0 L 1.578125 0 Z M 1.578125 -11.671875 "/>
</symbol>
<symbol overflow="visible" id="glyph0-4">
<path style="stroke:none;" d="M 10.3125 -10.765625 L 10.3125 -9.109375 C 9.78125 -9.597656 9.210938 -9.960938 8.609375 -10.203125 C 8.003906 -10.453125 7.363281 -10.578125 6.6875 -10.578125 C 5.351562 -10.578125 4.332031 -10.171875 3.625 -9.359375 C 2.914062 -8.546875 2.5625 -7.367188 2.5625 -5.828125 C 2.5625 -4.285156 2.914062 -3.109375 3.625 -2.296875 C 4.332031 -1.484375 5.351562 -1.078125 6.6875 -1.078125 C 7.363281 -1.078125 8.003906 -1.195312 8.609375 -1.4375 C 9.210938 -1.6875 9.78125 -2.054688 10.3125 -2.546875 L 10.3125 -0.90625 C 9.757812 -0.53125 9.171875 -0.242188 8.546875 -0.046875 C 7.929688 0.140625 7.28125 0.234375 6.59375 0.234375 C 4.832031 0.234375 3.441406 -0.304688 2.421875 -1.390625 C 1.410156 -2.472656 0.90625 -3.953125 0.90625 -5.828125 C 0.90625 -7.703125 1.410156 -9.175781 2.421875 -10.25 C 3.441406 -11.332031 4.832031 -11.875 6.59375 -11.875 C 7.289062 -11.875 7.945312 -11.78125 8.5625 -11.59375 C 9.1875 -11.414062 9.769531 -11.140625 10.3125 -10.765625 Z M 10.3125 -10.765625 "/>
</symbol>
<symbol overflow="visible" id="glyph0-5">
<path style="stroke:none;" d="M 1.515625 -12.15625 L 2.953125 -12.15625 L 2.953125 0 L 1.515625 0 Z M 1.515625 -12.15625 "/>
</symbol>
</g>
</defs>
<g id="surface55557">
<rect x="0" y="0" width="300" height="300" style="fill:rgb(100%,100%,100%);fill-opacity:1;stroke:none;"/>
<path style="fill:none;stroke-width:1.2;stroke-linecap:butt;stroke-linejoin:miter;stroke:rgb(0%,0%,0%);stroke-opacity:1;stroke-miterlimit:10;" d="M 30.6875 139.628906 L 57.015625 167.375 "/>
<path style="fill:none;stroke-width:1.2;stroke-linecap:butt;stroke-linejoin:miter;stroke:rgb(0%,0%,0%);stroke-opacity:1;stroke-miterlimit:10;" d="M 57.015625 167.375 L 94.210938 158.445312 "/>
<path style="fill:none;stroke-width:1.2;stroke-linecap:butt;stroke-linejoin:miter;stroke:rgb(0%,0%,0%);stroke-opacity:1;stroke-miterlimit:10;" d="M 98.523438 159.722656 L 103.957031 141.386719 "/>
<path style="fill:none;stroke-width:1.2;stroke-linecap:butt;stroke-linejoin:miter;stroke:rgb(100%,0%,0%);stroke-opacity:1;stroke-miterlimit:10;" d="M 103.957031 141.386719 L 109.390625 123.050781 "/>
<path style="fill:none;stroke-width:1.2;stroke-linecap:butt;stroke-linejoin:miter;stroke:rgb(0%,0%,0%);stroke-opacity:1;stroke-miterlimit:10;" d="M 89.894531 157.167969 L 95.328125 138.832031 "/>
<path style="fill:none;stroke-width:1.2;stroke-linecap:butt;stroke-linejoin:miter;stroke:rgb(100%,0%,0%);stroke-opacity:1;stroke-miterlimit:10;" d="M 95.328125 138.832031 L 100.761719 120.492188 "/>
<path style="fill:none;stroke-width:1.2;stroke-linecap:butt;stroke-linejoin:miter;stroke:rgb(0%,0%,0%);stroke-opacity:1;stroke-miterlimit:10;" d="M 94.210938 158.445312 L 107.375 172.320312 "/>
<path style="fill:none;stroke-width:1.2;stroke-linecap:butt;stroke-linejoin:miter;stroke:rgb(0%,0%,100%);stroke-opacity:1;stroke-miterlimit:10;" d="M 107.375 172.320312 L 120.539062 186.191406 "/>
<path style=" stroke:none;fill-rule:nonzero;fill:rgb(100%,100%,100%);fill-opacity:1;" d="M 99.074219 112.273438 L 112.074219 112.273438 L 112.074219 131.273438 L 99.074219 131.273438 Z M 99.074219 112.273438 "/>
<g style="fill:rgb(100%,0%,0%);fill-opacity:1;">
  <use xlink:href="#glyph0-1" x="99.074219" y="127.125"/>
</g>
<path style="fill:none;stroke-width:1.2;stroke-linecap:butt;stroke-linejoin:miter;stroke:rgb(0%,0%,100%);stroke-opacity:1;stroke-miterlimit:10;" d="M 120.539062 186.191406 L 139.136719 181.730469 "/>
<path style="fill:none;stroke-width:1.2;stroke-linecap:butt;stroke-linejoin:miter;stroke:rgb(0%,0%,0%);stroke-opacity:1;stroke-miterlimit:10;" d="M 139.136719 181.730469 L 157.730469 177.265625 "/>
<path style=" stroke:none;fill-rule:nonzero;fill:rgb(100%,100%,100%);fill-opacity:1;" d="M 108.539062 176.691406 L 132.539062 176.691406 L 132.539062 195.691406 L 108.539062 195.691406 Z M 108.539062 176.691406 "/>
<g style="fill:rgb(0%,0%,100%);fill-opacity:1;">
  <use xlink:href="#glyph0-2" x="108.539062" y="191.542969"/>
  <use xlink:href="#glyph0-3" x="120.507812" y="191.542969"/>
</g>
<path style="fill:none;stroke-width:1.2;stroke-linecap:butt;stroke-linejoin:miter;stroke:rgb(0%,0%,0%);stroke-opacity:1;stroke-miterlimit:10;" d="M 157.730469 177.265625 L 168.597656 140.589844 "/>
<path style="fill:none;stroke-width:1.2;stroke-linecap:butt;stroke-linejoin:miter;stroke:rgb(0%,0%,0%);stroke-opacity:1;stroke-miterlimit:10;" d="M 167.449219 176.152344 L 176.140625 146.816406 "/>
<path style="fill:none;stroke-width:1.2;stroke-linecap:butt;stroke-linejoin:miter;stroke:rgb(0%,0%,0%);stroke-opacity:1;stroke-miterlimit:10;" d="M 184.058594 205.011719 L 157.730469 177.265625 "/>
<path style="fill:none;stroke-width:1.2;stroke-linecap:butt;stroke-linejoin:miter;stroke:rgb(0%,0%,0%);stroke-opacity:1;stroke-miterlimit:10;" d="M 168.597656 140.589844 L 205.789062 131.664062 "/>
<path style="fill:none;stroke-width:1.2;stroke-linecap:butt;stroke-linejoin:miter;stroke:rgb(0%,0%,0%);stroke-opacity:1;stroke-miterlimit:10;" d="M 205.789062 131.664062 L 232.117188 159.410156 "/>
<path style="fill:none;stroke-width:1.2;stroke-linecap:butt;stroke-linejoin:miter;stroke:rgb(0%,0%,0%);stroke-opacity:1;stroke-miterlimit:10;" d="M 201.894531 140.632812 L 222.957031 162.828125 "/>
<path style="fill:none;stroke-width:1.2;stroke-linecap:butt;stroke-linejoin:miter;stroke:rgb(0%,0%,0%);stroke-opacity:1;stroke-miterlimit:10;" d="M 205.789062 131.664062 L 211.222656 113.324219 "/>
<path style="fill:none;stroke-width:1.2;stroke-linecap:butt;stroke-linejoin:miter;stroke:rgb(0%,80%,0%);stroke-opacity:1;stroke-miterlimit:10;" d="M 211.222656 113.324219 L 216.65625 94.988281 "/>
<path style="fill:none;stroke-width:1.2;stroke-linecap:butt;stroke-linejoin:miter;stroke:rgb(0%,0%,0%);stroke-opacity:1;stroke-miterlimit:10;" d="M 232.117188 159.410156 L 221.253906 196.082031 "/>
<path style="fill:none;stroke-width:1.2;stroke-linecap:butt;stroke-linejoin:miter;stroke:rgb(0%,0%,0%);stroke-opacity:1;stroke-miterlimit:10;" d="M 232.117188 159.410156 L 250.714844 154.945312 "/>
<path style="fill:none;stroke-width:1.2;stroke-linecap:butt;stroke-linejoin:miter;stroke:rgb(0%,80%,0%);stroke-opacity:1;stroke-miterlimit:10;" d="M 250.714844 154.945312 L 269.3125 150.480469 "/>
<path style="fill:none;stroke-width:1.2;stroke-linecap:butt;stroke-linejoin:miter;stroke:rgb(0%,0%,0%);stroke-opacity:1;stroke-miterlimit:10;" d="M 221.253906 196.082031 L 184.058594 205.011719 "/>
<path style="fill:none;stroke-width:1.2;stroke-linecap:butt;stroke-linejoin:miter;stroke:rgb(0%,0%,0%);stroke-opacity:1;stroke-miterlimit:10;" d="M 215.433594 188.226562 L 185.679688 195.367188 "/>
<path style=" stroke:none;fill-rule:nonzero;fill:rgb(100%,100%,100%);fill-opacity:1;" d="M 261.3125 140.980469 L 277.3125 140.980469 L 277.3125 159.980469 L 261.3125 159.980469 Z M 261.3125 140.980469 "/>
<g style="fill:rgb(0%,80%,0%);fill-opacity:1;">
  <use xlink:href="#glyph0-4" x="261.3125" y="155.832031"/>
  <use xlink:href="#glyph0-5" x="272.484375" y="155.832031"/>
</g>
<path style=" stroke:none;fill-rule:nonzero;fill:rgb(100%,100%,100%);fill-opacity:1;" d="M 208.65625 85.488281 L 224.65625 85.488281 L 224.65625 104.488281 L 208.65625 104.488281 Z M 208.65625 85.488281 "/>
<g style="fill:rgb(0%,80%,0%);fill-opacity:1;">
  <use xlink:href="#glyph0-4" x="208.65625" y="100.339844"/>
  <use xlink:href="#glyph0-5" x="219.828125" y="100.339844"/>
</g>
</g>
</svg>

<svg xmlns="http://www.w3.org/2000/svg" xmlns:xlink="http://www.w3.org/1999/xlink" width="300pt" height="300pt" viewBox="0 0 300 300"><defs><symbol overflow="visible"><path d="M.797 2.828v-14.11h8V2.83zm.906-.89h6.203v-12.33H1.703zm0 0"/></symbol><symbol overflow="visible" id="a"><path d="M6.313-10.594c-1.15 0-2.06.43-2.735 1.28-.68.857-1.015 2.017-1.015 3.486 0 1.47.335 2.633 1.015 3.484.676.856 1.586 1.28 2.735 1.28 1.144.002 2.05-.424 2.718-1.28.665-.85 1-2.015 1-3.484 0-1.47-.335-2.63-1-3.484-.667-.852-1.573-1.282-2.717-1.282zm0-1.28c1.632 0 2.94.546 3.92 1.64.978 1.093 1.47 2.562 1.47 4.406 0 1.844-.492 3.32-1.47 4.422-.98 1.093-2.288 1.64-3.92 1.64-1.65 0-2.96-.546-3.938-1.64-.98-1.102-1.47-2.578-1.47-4.422 0-1.844.49-3.313 1.47-4.406.977-1.094 2.29-1.64 3.938-1.64zm0 0"/></symbol><symbol overflow="visible" id="b"><path d="M1.578-11.672h2.125l5.172 9.766v-9.766h1.53V0H8.282L3.11-9.766V0H1.577zm0 0"/></symbol><symbol overflow="visible" id="c"><path d="M1.578-11.672h1.578v4.78H8.89v-4.78h1.58V0H8.89v-5.563H3.157V0H1.578zm0 0"/></symbol><symbol overflow="visible" id="d"><path d="M10.313-10.766v1.657c-.532-.488-1.102-.85-1.704-1.093-.606-.25-1.247-.375-1.922-.375-1.336 0-2.356.406-3.063 1.22-.71.81-1.063 1.99-1.063 3.53 0 1.543.352 2.72 1.063 3.53.707.814 1.727 1.22 3.063 1.22.675 0 1.316-.117 1.92-.36.603-.25 1.173-.617 1.704-1.11v1.642c-.554.375-1.14.664-1.765.86-.617.187-1.266.28-1.953.28-1.762 0-3.153-.54-4.172-1.625C1.41-2.474.906-3.954.906-5.83c0-1.875.504-3.348 1.516-4.422 1.02-1.082 2.41-1.625 4.172-1.625.695 0 1.35.094 1.968.28.626.18 1.208.454 1.75.83zm0 0"/></symbol><symbol overflow="visible" id="e"><path d="M1.516-12.156h1.437V0H1.516zm0 0"/></symbol></defs><g><path fill="#fff" d="M0 0h300v300H0z"/><path d="M30.688 139.63l26.328 27.745M57.016 167.375l37.195-8.93M98.523 159.723l5.434-18.336" stroke-width="1.2" stroke="#000" stroke-miterlimit="10" fill="none"/><path d="M103.957 141.387l5.434-18.336" stroke-width="1.2" stroke="#f00" stroke-miterlimit="10" fill="none"/><path d="M89.895 157.168l5.433-18.336" stroke-width="1.2" stroke="#000" stroke-miterlimit="10" fill="none"/><path d="M95.328 138.832l5.434-18.34" stroke-width="1.2" stroke="#f00" stroke-miterlimit="10" fill="none"/><path d="M94.21 158.445l13.165 13.875" stroke-width="1.2" stroke="#000" stroke-miterlimit="10" fill="none"/><path d="M107.375 172.32l13.164 13.87" stroke-width="1.2" stroke="#00f" stroke-miterlimit="10" fill="none"/><path d="M99.074 112.273h13v19h-13zm0 0" fill="#fff"/><use xlink:href="#a" x="99.074" y="127.125" fill="#f00"/><path d="M120.54 186.19l18.597-4.46" stroke-width="1.2" stroke="#00f" stroke-miterlimit="10" fill="none"/><path d="M139.137 181.73l18.593-4.464" stroke-width="1.2" stroke="#000" stroke-miterlimit="10" fill="none"/><path d="M108.54 176.69h24v19h-24zm0 0" fill="#fff"/><g fill="#00f"><use xlink:href="#b" x="108.539" y="191.543"/><use xlink:href="#c" x="120.508" y="191.543"/></g><path d="M157.73 177.266l10.868-36.676M167.45 176.152l8.69-29.336M184.06 205.012l-26.33-27.746M168.598 140.59l37.19-8.926M205.79 131.664l26.327 27.746M201.895 140.633l21.062 22.195M205.79 131.664l5.433-18.34" stroke-width="1.2" stroke="#000" stroke-miterlimit="10" fill="none"/><path d="M211.223 113.324l5.433-18.336" stroke-width="1.2" stroke="#0c0" stroke-miterlimit="10" fill="none"/><path d="M232.117 159.41l-10.863 36.672M232.117 159.41l18.598-4.465" stroke-width="1.2" stroke="#000" stroke-miterlimit="10" fill="none"/><path d="M250.715 154.945l18.597-4.465" stroke-width="1.2" stroke="#0c0" stroke-miterlimit="10" fill="none"/><path d="M221.254 196.082l-37.195 8.93M215.434 188.227l-29.754 7.14" stroke-width="1.2" stroke="#000" stroke-miterlimit="10" fill="none"/><path d="M261.313 140.98h16v19h-16zm0 0" fill="#fff"/><g fill="#0c0"><use xlink:href="#d" x="261.313" y="155.832"/><use xlink:href="#e" x="272.484" y="155.832"/></g><path d="M208.656 85.488h16v19h-16zm0 0" fill="#fff"/><g fill="#0c0"><use xlink:href="#d" x="208.656" y="100.34"/><use xlink:href="#e" x="219.828" y="100.34"/></g></g></svg>
